X:1
T:Trifle Not
T:Hart Pease Danks
T:Trifle Not
T:Public Domain
T:Public Domain
C:Hart Pease Danks
Z:Public Domain
%%score ( 1 2 ) ( 3 4 )
L:1/8
M:2/4
K:Eb
V:1 treble 
V:2 treble 
V:3 bass 
V:4 bass 
V:1
 EE [EG][EG] | [EF][DF] E2 | [EG][EG] [GB][GB] | [FA][FA] [EG]2 | [Ec][Ec] [EB][EB] | %5
w: 1.~Tri- fle not your|way, Come to|sus, come to- day,|For to- mor-|row you may be|
w: 2.~If you slight His|grace And re-|to seek His face,|Tho’ He lin-|ger at your heart,|
w: 3.~Has the world the|heal What your|per- chance may feel?|Trust it not;|no more de- lay,|
 [DA][DA] [EG]2 | [DF][DF] [FB][Fd] | [Ec]>[DB] [DB]2 ||"^Refrain" [DB][Dc] [DF](G/F/) | %9
w: In a vast|e- ter- ni- ty.|||
w: You may grieve|Him to de- part.|While with you|the Spir- it pleads, *|
w: Come to Je-|sus, come to- day.|||
 E[EA] [EG]2 | [FG][FG] [EG][Ec] | [Ec][D=B] [Ec]2 | [Ec][Ec] [EB][EG] | [DA](E/F/) [EG]2 | %14
w: |||||
w: for you He|ter- cedes, Now the|voice of love|o- bey, Come to|Je- sus, * come|
w: |||||
 [EA][Ec] [EB]E | [EG]>[DF] E2 |] %16
w: ||
w: day. * * *||
w: ||
V:2
 EE x2 | x2 E2 | x4 | x4 | x4 | x4 | x4 | x4 || x3 D | E x3 | x4 | x4 | x4 | x A x2 | x3 E | %15
w: time a-|Je-||||||||||||||
w: of- fered|fuse|||||||While|in-||||to-||
w: balm to|life||||||||||||||
 x2 E2 |] %16
w: |
w: |
w: |
V:3
 [E,G,][E,G,] [E,B,][E,B,] | [B,,A,][B,,A,] [E,G,]2 | [E,B,][E,B,] [E,B,][E,B,] | %3
 (D,/B,,/)(C,/D,/) [E,B,]2 | [A,,A,][A,,A,] [E,G,][E,G,] | [F,B,][B,,B,] [E,B,]2 | %6
 [F,B,][F,B,] [D,B,][B,,B,] | [F,=A,]>[F,B,] [B,,B,]2 || [B,,A,][B,,A,] [B,,A,](B,/A,/) | %9
 [E,G,][E,C] [E,B,]2 | [D,=B,][G,B,] [C,C][C,G,] | G,[G,,G,] [C,G,]2 | %12
 (A,,/B,,/)(C,/D,/) [E,G,][E,B,] | (F,/B,,/)(C,/D,/) (E,_D,) | [C,A,][=A,,^G,] [B,,G,][C,=A,] | %15
 [B,,B,]>[B,,A,] [E,G,]2 |] %16
V:4
 x4 | x4 | x4 | B,B, x2 | x4 | x4 | x4 | x4 || x3 B,, | x4 | x4 | G, x3 | A,A, x2 | B,B, B,2 | x4 | %15
 x4 |] %16

